assets/ios/swift/Icons.xcassets/collapse.imageset/collapse.svg

<svg width="24" height="24" viewBox="0 0 24 24" fill="none" xmlns="http://www.w3.org/2000/svg">
<path d="M12.0001 11.0342C12.0004 11.1687 12.0274 11.2969 12.0759 11.414C12.1244 11.531 12.196 11.6408 12.2908 11.7362L12.2951 11.7404C12.4759 11.9201 12.725 12.0312 13 12.0312H21.0001C21.5523 12.0312 22.0001 11.5835 22.0001 11.0312C22.0001 10.4789 21.5523 10.0312 21.0001 10.0312H15.4143L22.0002 3.44539C22.3907 3.05486 22.3907 2.4217 22.0002 2.03117C21.6096 1.64065 20.9765 1.64065 20.586 2.03117L14 8.61696V3.03117C14 2.47889 13.5523 2.03117 13 2.03117C12.4478 2.03117 12 2.47889 12 3.03117V11.0305L12.0001 11.0342Z" fill="black"/>
<path d="M12 12.9969C11.9996 12.8624 11.9727 12.7342 11.9242 12.6171C11.8757 12.5001 11.8041 12.3903 11.7093 12.2949L11.705 12.2907C11.5242 12.111 11.2751 11.9999 11 11.9999H3.00004C2.44775 11.9999 2.00004 12.4476 2.00004 12.9999C2.00004 13.5522 2.44775 13.9999 3.00004 13.9999H8.58583L1.99992 20.5857C1.6094 20.9762 1.6094 21.6094 1.99992 21.9999C2.39045 22.3904 3.02361 22.3904 3.41414 21.9999L10 15.4141V20.9999C10 21.5522 10.4478 21.9999 11 21.9999C11.5523 21.9999 12 21.5522 12 20.9999V13.0006L12 12.9969Z" fill="black"/>
</svg>

<svg xmlns="http://www.w3.org/2000/svg" width="24" height="24" fill="black" viewBox="0 0 24 24">
  <path d="M12 11.034a.996.996 0 0 0 .29.702l.005.005c.18.18.43.29.705.29h8a1 1 0 0 0 0-2h-5.586L22 3.445a1 1 0 0 0-1.414-1.414L14 8.617V3.031a1 1 0 1 0-2 0v8.003Zm0 1.963a.997.997 0 0 0-.29-.702l-.005-.004A.997.997 0 0 0 11 12H3a1 1 0 1 0 0 2h5.586L2 20.586A1 1 0 1 0 3.414 22L10 15.414V21a1 1 0 0 0 2 0v-8.003Z"/>
</svg>
